X:1
T:Assassin's Creed: Ezio's Family
T:Jesper Kyd (transcribed from audio by Amreth)
T:Assassin's Creed: Ezio's Family
T:16
T:24
%%score { 1 | 2 }
L:1/8
Q:1/4=120
M:3/4
K:C
V:1 treble nm="Part_1"
V:2 bass 
V:1
"^180" z[I:staff +1] (D,,2 (F,,2) A,,2) x |[I:staff -1] z8 | z8 | z8 | z8 | z8 | z8 | z8 | d6 | %9
 f6 | g6 | a6 | d6 | f6 | g6 | f6 | d6 | a6 | g6 | a6 | d6 | a6 | g6 | a6 | d6 | f6 | g6 | a6 | %28
 d6 | f6 | g6 | f6 | d6 |[M:3/4][K:treble] f6 | g6 | a6 | d6 | f6 | g6 | f6 | d6 | f6 | g6 | a6 | %44
 d6 | f6 | g6 | f6 | d6 | f6 | g6 | a6 | z3 d6 | f6 | g6 | f6 | d'6 | e'6 | f'6 | g'6 | a'6- | %61
 a'6 |] %62
V:2
 z8 | MD,2 (A,,2 (F,,2) x2 | (D,,2) (F,,2) (A,,2) x2 | MD,2) (A,,2 (F,,2) x2 | %4
 (D,,2) (F,,2) (A,,2) x2 | MD,2) (A,,2 (F,,2) x2 | (D,,2) (F,,2) A,,2) x2 | (D,2 (A,,2) (F,,2) x2 | %8
 (D,,2) (F,,2) (A,,2) | (D,2) (A,,2) (F,,2) | (D,,2) (F,,2) (A,,2) | (D,2) (A,,2) (F,,2) | %12
 (D,,2) (F,,2) (A,,2) | D,2) (A,,2 (F,,2) | (D,,2) (F,,2) A,,2) | D,2 (A,,2 (F,,2) | %16
 (D,,2) (F,,2) (A,,2) | D,2) (A,,2 (F,,2) | (D,,2) (F,,2) (A,,2) | D,2) (A,,2 (F,,2) | %20
 (D,,2) (F,,2) (A,,2) | D,2) (A,,2 (F,,2) | (D,,2) (F,,2) A,,2) | (D,2 (A,,2) F,,2) | %24
 [D,,-D,,D,-]4 x2 | [D,,D,,-D,-]4 x2 | [D,,D,]6- | [D,,D,]6 | [F,,F,,F,-]4 x2 | [F,,F,,F,-]4 x2 | %30
 [F,,F,-]6 | [F,,F,]6 | ([_B,,_B,]4 x2 |[M:3/4][K:bass] [B,,B,]6-) | [B,,B,]6- | [B,,B,]6 | %36
 [A,,A,-]6 | [A,,A,-]6 | [A,,A,-]6 | [A,,A,]6 | ((([D,,D,,F,,F,,A,,A,,]4 x2 | [D,,F,,-A,,-]6))) | %42
 ((([D,,D,,F,,F,,A,,A,,]4 x2 | [D,,D,,F,,F,,A,,A,,]4))) x2 | (([F,,F,,A,,A,,D,-]4 x2 | %45
 [F,,A,,-D,-]6)) | [F,,A,,-D,-]6 | [F,,F,,A,,A,,D,E,]4 x2 | [_B,,D,G,]6- | [B,,D,G,]6- | %50
 [B,,D,G,]6- | [B,,D,G,]6 | x3 (([G,,B,,D,-]6 | [G,,A,,B,,C,D,E,]4)) x2 | [G,,_B,,E,]6- | %55
 [G,,A,,B,,C,E,E,]4 x2 | ([G,,B,,D,-]6 | [G,,B,,D,]6) | [G,,-_B,,E,-]6 | [G,,A,,B,,C,E,E,]4 x2 | %60
 [D,F,A,]6- | [D,F,A,]6 |] %62

